X:1
T:Title
%%score { ( 1 4 ) | ( 2 3 ) }
L:1/8
M:4/4
K:D
V:1 treble nm="Grand Piano"
V:4 treble 
V:2 bass 
V:3 bass 
V:1
 z4 z2[Q:1/4=82] D2 | F2 ED G2 F2 | B2 A4 z2 | d2 [DAc]2 [DGB]2 [=CFA]2 | %4
 [=CFA]2 [EG]2 z2 [B,EG]2 | [CE]2 [DF]G [A,DF]2 [DFA]2 | [B,=F^G]2 F-[FB] [A,EA]2 [^FB]2 | %7
 [Ec]2 [FB]A A^GFG | [A,CA]6 z2 | [CFA][CFA] [CFA]2 [=FA]2 [B,F^G]2 | %10
 [A,F]2 [B,D^G]2 [^G,C=F]2 [G,B,F][G,B,F] | [F,A,F][A,F] [^A,EF]2 [B,DB]>[DFB] A2 | z4 B2 z2 | %13
 =F-[F^G][A,^F][B,DG] C2- [C=F]2 | F6 F2 | z2 F2 z4 | F2 F4 AA | A2 [CGA]2 [D=FA]2 [DA]2 | %18
 [DA]2 [CA]4 [A,A]2 | [Af]2 cc d2 A2 | B2 F2 G2 [^A,EG][A,EG] | [A,EA]4 [A,DF]2 [A,D]2 | %22
 [DB]4 [DA]2 [DFA]2 | [EGc]4 [DFd]4 | z4 c4 |[M:3/4] [Fd]6 |] %26
V:2
 z4 z2 [D,F,A,]2 | [D,A,D]2 [D,G,C][D,F,] [D,B,D]2 [D,A,D]2 | [D,G,C]2 [D,F,D]4 z2 | %3
 [B,DF]2 F,2 G,2 ^D,2 | z2 B,2 z2 E,2 | A,2 z E D,2 D,2 | D,2 z ^G, C,2 [D,A,]2 | %7
 [E,A,]2 [E,D][E,CE] [E,B,D]2 [E,B,D]2 | A,,6 z2 | F,F, A,2 C2 C,2 | D,2 B,,2 C,2 C,C, | %11
 D,D, C,2 B,,>B,,[K:treble] [F,CF]2 | [B,=F]2 [A,C^F][A,CF] [DF]C[K:bass]F,F, | z B,D,B,, z2 ^G,2 | %14
 [F,A,C]6 F,2 | [F,^A,]2 [^G,B,]A, [F,B,D]2 (3[F,A,C][F,B,D][F,CE] | [F,CE]2 [F,B,D]4 A,A, | %17
 A,2 A,2 A,,2 [A,,=F,]2 | [A,,=F,]2 [A,,E,]4 z2 | [D,D]2[K:treble] [A,EG][A,EG] [B,DF]2 [F,D]2 | %20
 [G,DG]2[K:bass] [^D,=C]2 [E,B,E]2 =D,D, | z2 z G D,2 F,2 | G,4 z4 | A,,4 B,,4 | E6 z2 | %25
[M:3/4] [D,A,]6 |] %26
V:3
 x8 | x8 | x8 | x8 | E,4 z4 | z2 [A,,A,]2 z4 | z2 D,2 z4 | x8 | x8 | x8 | x8 | x6[K:treble] x2 | %12
 z4 G,2[K:bass] z2 | C,2 z2 C,4 | x8 | z2 F,2 z4 | x8 | x8 | x8 | x2[K:treble] x6 | x2[K:bass] x6 | %21
 C,4 z4 | z2 B,2 F,2 D,2 | x8 | [G,,B,]4 [A,,A,]4 |[M:3/4] x6 |] %26
V:4
 x8 | x8 | x8 | x8 | x8 | x8 | z2 .[A,A]2 z4 | x8 | x8 | x8 | x8 | x8 | d2 cc z =F[C^FA][CFA] | %13
 .[CA]2 z2 [A,F]2 z2 | x8 | F2 z C F2 (3FFF | x8 | x8 | x8 | x8 | x8 | x8 | x8 | x8 | d4 z2 G2 | %25
[M:3/4] x6 |] %26

